svg/gnu.svg

<svg viewBox="0 0 20 20" xmlns="http://www.w3.org/2000/svg">
<rect width="100%" height="100%" fill="black"/>
<path d="M5.09263 11.245C4.97663 11.253 4.82663 11.305 4.72563 11.488C4.64363 11.637 4.45063 11.661 4.36063 11.631C4.21063 11.581 4.01863 11.546 3.83263 11.68C3.64663 11.814 3.44563 11.713 3.48163 11.469C3.51663 11.225 3.60363 11.008 3.83563 10.874C4.34063 10.581 3.98963 10.376 4.26763 10.082C4.54563 9.78699 4.48463 9.69699 4.47463 9.29599C3.53463 9.15199 3.00163 8.87899 2.40763 8.12899C1.81363 7.37899 1.58263 6.76199 1.52063 5.82199C1.45863 4.88199 1.51263 4.27299 1.91463 3.49199C2.31663 2.71099 2.74063 2.33599 3.47463 1.94599C4.20863 1.55599 4.92763 1.46299 5.59263 1.47499C6.25763 1.48599 6.70063 1.53599 7.07563 1.75199C7.45163 1.96799 7.79463 2.24099 8.01363 2.24299C8.23463 2.24499 8.38363 2.18699 8.48963 2.10499C8.51763 2.83399 7.86863 2.89699 7.28763 2.91199C6.70663 2.92699 6.34863 2.68499 5.81363 2.77499C5.27863 2.86499 4.40163 3.11099 3.97463 3.86099C3.54763 4.61099 3.53363 4.87699 3.56863 5.50599C3.60463 6.13499 4.14063 6.60499 4.44363 6.60999C4.74663 6.61499 4.81363 6.52699 5.07863 6.35199C5.34363 6.17699 6.69663 4.48699 7.15863 4.10699C7.62063 3.72699 8.07563 3.60999 8.56763 3.60399C9.05963 3.59799 9.18563 3.61499 9.58163 3.77899C9.97863 3.94299 10.2226 4.24499 10.5426 4.42999C10.7066 4.33299 10.8076 4.18799 10.9576 4.07699C11.4946 3.68099 11.7726 3.57399 12.4106 3.63699C12.7766 3.67299 13.2396 3.88399 13.5146 4.12599C14.0056 4.55699 14.4116 5.15699 14.7396 5.61299C14.9946 5.96799 15.2956 6.39299 15.7236 6.52599C16.1916 6.67099 16.5446 6.05899 16.5956 5.71899C16.6246 5.52699 16.6636 5.35799 16.6636 5.14599C16.6636 4.93399 16.6426 4.67699 16.5816 4.45599C16.5216 4.23499 16.4176 4.01599 16.3056 3.83399C16.1226 3.53799 15.8246 3.22699 15.5136 3.06799C15.3386 2.97799 14.9286 2.81599 14.6696 2.80999C14.3526 2.80299 14.1106 2.91099 13.8186 2.93099C13.4636 2.95499 12.8306 3.03599 12.5526 2.75899C12.3756 2.58299 12.3536 2.46599 12.3236 2.23599C12.4016 2.30099 12.5116 2.34399 12.6086 2.35199C12.8306 2.37099 13.0386 2.18799 13.2176 2.08199C13.3656 1.99499 13.5746 1.83799 13.7686 1.75999C14.2666 1.55699 14.8796 1.56299 15.4056 1.61699C15.8276 1.66099 16.3746 1.84999 16.7436 2.06099C17.1156 2.27299 17.4736 2.63099 17.7356 2.96799C18.0656 3.39199 18.2456 3.75699 18.3656 4.28599C18.5186 4.96199 18.5606 5.97799 18.3756 6.64399C18.2296 7.16899 17.7466 7.97599 17.3356 8.37199C16.9296 8.76199 16.4616 8.94999 15.9286 9.05299C15.9496 9.16199 15.9526 9.26299 15.9806 9.35199C16.0196 9.47799 16.0946 9.61899 16.2486 9.57499C16.3096 9.55699 16.3426 9.54199 16.4236 9.61299C16.5046 9.68399 16.4626 9.95999 16.2346 10.084C16.1196 10.147 15.9976 10.16 15.8126 10.164C15.6276 10.168 15.3396 10.169 15.1386 10.133C14.9376 10.098 14.8186 9.93699 14.5956 9.91199C14.2526 9.87299 13.9896 9.62299 13.7136 9.44399C13.5986 9.36899 13.5596 9.36799 13.4936 9.33099C13.5296 9.44199 13.5766 9.55599 13.6006 9.66299C13.6246 9.76899 13.6146 9.86799 13.6266 9.95299C13.6396 10.038 13.6626 10.104 13.6766 10.173C13.7316 10.223 13.7496 10.298 13.8416 10.322C13.9336 10.346 14.0786 10.309 14.1736 10.296C14.2686 10.283 14.3316 10.231 14.4056 10.245C14.4796 10.259 14.5506 10.313 14.6126 10.363C14.6746 10.413 14.7286 10.421 14.7786 10.546C14.8286 10.672 14.8756 10.929 14.8816 11.1C14.8886 11.272 14.8696 11.427 14.8186 11.563C14.7686 11.699 14.7236 11.76 14.5876 11.895C14.4506 12.03 14.2286 12.228 14.0066 12.366C14.0476 12.427 14.0656 12.483 14.1296 12.549C14.1936 12.615 14.3266 12.69 14.3856 12.76C14.4446 12.83 14.4746 12.88 14.4756 12.959C14.4766 13.037 14.4726 13.139 14.4096 13.225C14.2526 13.438 14.0666 13.476 13.8406 13.576C13.8786 13.816 13.9096 13.987 13.8546 14.226C13.8316 14.323 13.7826 14.544 13.6636 14.601C13.5446 14.658 13.3146 14.63 13.1696 14.653C13.0246 14.676 12.9426 14.698 12.8296 14.721C12.7606 14.822 12.6586 14.932 12.6226 15.023C12.5876 15.113 12.5976 15.145 12.6276 15.237C12.6576 15.329 12.7576 15.463 12.7866 15.571C12.8156 15.679 12.8206 15.795 12.7946 15.903C12.7676 16.011 12.7226 16.089 12.6316 16.185C12.5406 16.281 12.3616 16.356 12.2716 16.434C12.1826 16.512 12.0936 16.521 12.1176 16.65C12.1516 16.827 12.4066 17.113 12.5916 17.182C12.7026 17.223 12.8516 17.21 12.9856 17.153C12.9766 17.304 12.8466 17.406 12.7626 17.506C12.9916 17.44 13.2136 17.313 13.3666 17.146C13.3186 17.292 13.1546 17.525 12.9096 17.731C12.6646 17.936 12.6656 17.894 12.5446 17.976C12.7666 18.021 12.9736 18.009 13.1456 17.978C13.0516 18.031 12.8966 18.104 12.6916 18.126C12.4866 18.148 12.3606 18.132 12.1756 18.087C11.9906 18.042 11.8226 17.872 11.5986 17.755C11.6206 17.839 11.6356 17.94 11.7306 18.026C11.8246 18.112 11.9676 18.156 12.1186 18.231C11.9256 18.209 11.7236 18.202 11.5336 18.16C11.3936 18.129 11.2996 18.096 11.1966 18.044C11.0936 17.992 11.0146 17.918 10.9236 17.855C10.9676 17.939 10.9796 18.038 11.0546 18.107C11.1286 18.176 11.2486 18.202 11.3466 18.249C11.2446 18.247 11.1476 18.269 11.0416 18.242C10.9366 18.215 10.8376 18.173 10.7276 18.092C10.6186 18.011 10.5056 17.91 10.4116 17.808C10.3186 17.705 10.2026 17.572 10.1676 17.478C10.1326 17.383 10.1886 17.317 10.1986 17.237C10.1346 17.28 10.0546 17.303 10.0056 17.365C9.95563 17.427 9.91163 17.484 9.93363 17.592C9.95563 17.7 10.0546 17.833 10.1246 17.953C9.91563 17.781 9.79963 17.714 9.74963 17.506C9.70263 17.311 9.82363 17.135 9.91463 16.987C9.95963 16.914 10.0276 16.846 10.0706 16.775C9.97663 16.682 9.86863 16.602 9.78763 16.496C9.70663 16.39 9.67263 16.246 9.59063 16.144C9.50763 16.042 9.39663 15.978 9.30063 15.895C9.38563 16.079 9.52563 16.305 9.55563 16.448C9.58563 16.591 9.52163 16.678 9.47163 16.755C9.42163 16.832 9.34063 16.849 9.26363 16.897C9.18663 16.944 9.06763 16.907 9.02163 16.977C8.97563 17.047 8.96363 17.153 9.00763 17.222L9.18663 17.508C9.12063 17.474 9.00663 17.376 8.95563 17.307C8.90463 17.238 8.82563 17.173 8.81463 17.08C8.80363 16.986 8.79863 16.905 8.85863 16.821C8.91863 16.737 9.08363 16.709 9.15763 16.645C9.23163 16.581 9.27263 16.539 9.26863 16.456C9.26463 16.373 9.18363 16.314 9.11463 16.261C8.90363 16.101 8.63263 15.954 8.45363 15.761C8.35263 15.652 8.30363 15.564 8.28363 15.489C8.26363 15.414 8.28463 15.355 8.33463 15.263C8.38463 15.171 8.55763 15.047 8.57863 14.947C8.59963 14.847 8.51263 14.825 8.43363 14.79C8.35463 14.755 8.20563 14.808 8.13263 14.747C8.05963 14.685 8.15363 14.556 8.07163 14.485C7.98963 14.414 7.80163 14.454 7.70463 14.377C7.60763 14.301 7.56763 14.206 7.53363 14.095C7.50063 13.984 7.49663 13.863 7.51863 13.783C7.54163 13.703 7.60963 13.689 7.65063 13.647C7.69163 13.605 7.72763 13.571 7.67263 13.509C7.61763 13.447 7.43863 13.512 7.33563 13.433C7.23263 13.354 7.29563 13.163 7.22263 13.083C7.14963 13.003 7.01863 13.034 6.94963 13.008C6.88063 12.982 6.85363 13.073 6.81163 12.93C6.76963 12.787 6.76863 12.36 6.71163 12.201C6.65463 12.042 6.54263 12.19 6.49063 12.032C6.43863 11.874 6.48763 11.621 6.46463 11.382L6.35863 10.732C5.98863 10.983 5.74463 11.062 5.34763 11.132C5.09263 11.245 5.35163 11.132 5.09263 11.245Z" fill="white"/>
</svg>

<svg xmlns="http://www.w3.org/2000/svg" viewBox="0 0 20 20">
  <rect width="100%" height="100%"/>
  <path fill="#fff" d="M5.1 11.24a.44.44 0 0 0-.37.25c-.09.15-.28.17-.37.14-.15-.05-.34-.08-.53.05-.18.13-.38.03-.35-.21.04-.25.12-.46.36-.6.5-.29.15-.5.43-.79.28-.3.21-.38.2-.78a2.82 2.82 0 0 1-2.06-1.17 3.71 3.71 0 0 1-.89-2.3c-.06-.95 0-1.56.4-2.34.4-.78.82-1.15 1.55-1.54a4.22 4.22 0 0 1 2.12-.48c.67.02 1.11.07 1.49.28.37.22.71.5.93.5.22 0 .37-.06.48-.15.03.73-.62.8-1.2.81-.58.02-.94-.23-1.48-.14-.53.1-1.4.34-1.84 1.1-.42.74-.44 1-.4 1.64.03.62.57 1.1.87 1.1.3 0 .37-.08.64-.26.26-.17 1.62-1.86 2.08-2.24.46-.38.92-.5 1.4-.5.5-.01.63 0 1.02.17.4.16.64.46.96.65.17-.1.27-.24.42-.35.53-.4.81-.5 1.45-.44.37.03.83.24 1.1.49.5.43.9 1.03 1.23 1.48.25.36.56.78.98.92.47.14.82-.47.88-.81.02-.2.06-.36.06-.57 0-.22-.02-.47-.08-.7a2.45 2.45 0 0 0-.27-.62 2.2 2.2 0 0 0-.8-.76 2.49 2.49 0 0 0-.84-.26c-.32 0-.56.1-.85.12-.36.02-.99.1-1.27-.17-.17-.18-.2-.3-.23-.52.08.06.2.1.29.11.22.02.43-.16.6-.27.16-.09.36-.24.56-.32a3.81 3.81 0 0 1 2.98.3 3.65 3.65 0 0 1 1.62 2.23c.15.67.2 1.69 0 2.35a4.67 4.67 0 0 1-1.03 1.73c-.41.4-.88.58-1.41.68.02.11.02.21.05.3.04.13.11.27.27.22.06-.01.1-.03.17.04.08.07.04.35-.19.47a.87.87 0 0 1-.42.08c-.18 0-.47 0-.67-.03-.2-.03-.32-.2-.54-.22-.35-.04-.61-.29-.89-.47-.11-.07-.15-.07-.22-.1.04.1.09.22.11.32l.03.3.05.21c.05.05.07.13.16.15.1.03.24-.01.33-.02.1-.02.16-.07.24-.06.07.02.14.07.2.12.06.05.12.06.17.19.05.12.1.38.1.55 0 .17-.01.33-.06.46-.05.14-.1.2-.23.33-.14.14-.36.34-.58.48.04.06.06.11.12.18.06.06.2.14.26.21.05.07.08.12.09.2 0 .08 0 .18-.07.26-.16.22-.34.26-.57.36.04.24.07.4.01.65-.02.1-.07.31-.19.37s-.35.03-.49.05l-.34.07c-.07.1-.17.21-.2.3-.04.1-.03.13 0 .22s.13.22.16.33c.03.1.03.22 0 .33a.59.59 0 0 1-.16.28c-.09.1-.27.18-.36.25-.09.08-.18.1-.15.22.03.18.29.46.47.53.11.04.26.03.4-.03-.01.15-.14.26-.23.36.23-.07.45-.2.6-.36-.04.14-.2.38-.45.58-.25.2-.24.16-.37.25.23.04.43.03.6 0-.09.05-.24.12-.45.15-.2.02-.33 0-.51-.04-.19-.05-.36-.22-.58-.34.02.09.04.19.13.28.1.08.24.13.39.2-.2-.02-.4-.03-.59-.07a1.33 1.33 0 0 1-.33-.12c-.1-.05-.19-.12-.28-.18.05.08.06.18.13.25.08.07.2.1.3.14-.1 0-.2.02-.3 0a.87.87 0 0 1-.32-.16 2.35 2.35 0 0 1-.56-.61c-.04-.1.02-.16.03-.24-.07.04-.15.06-.2.13-.04.06-.09.11-.07.22.03.11.12.24.2.36-.21-.17-.33-.24-.38-.44-.05-.2.07-.38.16-.52.05-.08.12-.14.16-.21-.1-.1-.2-.18-.28-.28-.08-.11-.12-.25-.2-.36-.08-.1-.2-.16-.29-.25.09.19.23.41.26.56.03.14-.04.23-.09.3-.05.08-.13.1-.2.15-.08.04-.2 0-.25.08-.04.07-.06.17-.01.24l.18.29a.87.87 0 0 1-.23-.2c-.06-.07-.13-.14-.15-.23 0-.1-.01-.17.05-.26.06-.08.22-.11.3-.18.07-.06.11-.1.1-.18 0-.09-.08-.15-.15-.2-.2-.16-.48-.3-.66-.5a.67.67 0 0 1-.17-.27c-.02-.08 0-.13.05-.23.05-.09.23-.21.25-.31.02-.1-.07-.13-.15-.16-.08-.03-.22.02-.3-.04-.07-.06.02-.2-.06-.27s-.27-.03-.37-.1a.52.52 0 0 1-.17-.29.61.61 0 0 1-.01-.3c.02-.09.09-.1.13-.14.04-.04.08-.08.02-.14-.05-.06-.23 0-.33-.08s-.04-.27-.12-.35c-.07-.08-.2-.05-.27-.07-.07-.03-.1.06-.14-.08-.04-.14-.04-.57-.1-.73-.06-.16-.17-.01-.22-.17-.05-.16 0-.4-.03-.65l-.1-.65c-.37.25-.62.33-1.01.4l-.26.11Z"/>
</svg>
